!!!OTL: Die verkaufte Muellerin 's waer is a mol ui guet z Obed spot,
!!!ARE: Europa, Suedosteuropa, Rumaenien, Sathmar
!!!YOR: 4, S. 338
!!    ????
!!!SCT: Q0086H
!!!YEM: Copyright 1995, estate of Helmut Schaffrath.
**kern
*ICvox
*Ivox
*M6/4
*k[f#]
*G:
{4d
=1
4g
4g
4b
4dd
4dd
4b
=2
2a
4dd
2cc}
{4b
=3
4a
4a
4dd
2a
4g
=4
4f#
4g
4b
2a}
{8g
8a
=5
4b
4b
8b
8ee
2dd
8b
8g
=6
2.a
2g}
{8g
8a
=7
4b
4b
8b
8ee
2dd
8b
8g
=8
2.a
2g}
==
!!!AGN: Ballade, Menschenhandel, Rettung, Hinrichtung
!! Zweistimmig notiert, Oberstimme kodiert, auch die eingeklammerte Note.
!!!ONB: ESAC (Essen Associative Code) Database: BALLADE
!!!AMT: compound duple
!!!AIN: vox
!!!EED: Helmut Schaffrath
!!!EEV: 1.0
*-
